gos-pohoronq/img/light.svg

<svg width="59" height="88" viewBox="0 0 59 88" fill="none" xmlns="http://www.w3.org/2000/svg">
<path d="M47.9415 6.67267C41.1535 1.07867 32.2175 -1.14733 23.4295 0.563674C11.5985 2.86667 2.09653 12.8537 0.32253 24.8507C-1.12447 34.6407 2.35353 44.4177 9.62653 51.0057C12.9035 53.9737 14.8805 58.2487 15.1945 63.0447C15.2005 63.1317 15.2175 63.2157 15.2365 63.2987V78.3377C15.2365 79.1657 15.9075 79.8377 16.7365 79.8377H18.2315C18.8405 84.1967 22.0445 87.5347 25.9035 87.5347H32.7135C36.5725 87.5347 39.7755 84.1967 40.3845 79.8377H41.8795C42.7075 79.8377 43.3795 79.1657 43.3795 78.3377V63.0587C43.3795 63.0557 43.3805 63.0527 43.3805 63.0487C43.3805 58.5867 45.4065 54.2777 49.0865 50.9157C55.1485 45.3777 58.6245 37.5007 58.6245 29.3057C58.6255 20.5177 54.7315 12.2677 47.9415 6.67267ZM24.0045 35.1407H21.6995C20.4285 35.1407 19.3945 34.1067 19.3945 32.8357C19.3945 31.5647 20.4285 30.5307 21.6995 30.5307C22.9705 30.5307 24.0045 31.5647 24.0045 32.8357V35.1407ZM34.6135 32.8357C34.6135 31.5647 35.6475 30.5307 36.9195 30.5307C38.1905 30.5307 39.2245 31.5647 39.2245 32.8357C39.2245 34.1067 38.1905 35.1407 36.9195 35.1407H34.6165L34.6135 32.8357ZM33.7105 64.4417H40.3805V76.8377H39.0075C39.0045 76.8377 39.0015 76.8367 38.9975 76.8367C38.9935 76.8367 38.9915 76.8377 38.9875 76.8377H19.6295C19.6265 76.8377 19.6235 76.8367 19.6195 76.8367C19.6155 76.8367 19.6135 76.8377 19.6095 76.8377H18.2375V64.4417H32.6035H33.7105ZM27.0045 61.4417V38.1407H31.6215L31.6555 61.4417H27.0045ZM32.7135 84.5347H25.9035C23.6655 84.5347 21.7865 82.5307 21.2665 79.8377H37.3495C36.8305 82.5307 34.9515 84.5347 32.7135 84.5347ZM47.0635 48.7017C43.1915 52.2387 40.8995 56.7147 40.4705 61.4417H34.6545L34.6215 38.1407H36.9195C39.8445 38.1407 42.2245 35.7607 42.2245 32.8357C42.2245 29.9107 39.8445 27.5307 36.9195 27.5307C33.9935 27.5307 31.6135 29.9107 31.6135 32.8377L31.6165 35.1407H27.0045V32.8357C27.0045 29.9107 24.6245 27.5307 21.6995 27.5307C18.7745 27.5307 16.3945 29.9107 16.3945 32.8357C16.3945 35.7607 18.7745 38.1407 21.6995 38.1407H24.0045V61.4417H18.0325C17.3965 56.4367 15.1685 51.9767 11.6395 48.7817C5.11153 42.8677 1.98953 34.0857 3.28953 25.2887C4.88053 14.5287 13.3975 5.57267 24.0015 3.50767C31.9095 1.96967 39.9395 3.96567 46.0315 8.98767C52.1275 14.0107 55.6235 21.4167 55.6235 29.3067C55.6255 36.6607 52.5045 43.7307 47.0635 48.7017Z" fill="white"/>
</svg>

<svg width="59" height="88" fill="none" xmlns="http://www.w3.org/2000/svg"><path d="M47.941 6.673C41.153 1.079 32.218-1.147 23.43.563 11.6 2.868 2.098 12.854.323 24.852c-1.447 9.79 2.03 19.567 9.304 26.155 3.276 2.968 5.253 7.243 5.567 12.039.006.087.023.17.042.254v15.039a1.5 1.5 0 001.5 1.5h1.495c.61 4.359 3.813 7.697 7.672 7.697h6.81c3.86 0 7.063-3.338 7.672-7.697h1.495a1.5 1.5 0 001.5-1.5v-15.29c0-4.461 2.026-8.77 5.706-12.132a29.341 29.341 0 009.538-21.61A29.23 29.23 0 0047.941 6.673zM24.004 35.14H21.7a2.308 2.308 0 01-2.305-2.305A2.308 2.308 0 0121.7 30.53a2.308 2.308 0 012.305 2.305v2.305zm10.61-2.305a2.308 2.308 0 012.306-2.305 2.308 2.308 0 012.304 2.305 2.308 2.308 0 01-2.304 2.305h-2.303l-.003-2.305zm-.903 31.606h6.67v12.396h-1.373l-.01-.001H18.237V64.443H33.71zm-6.706-3V38.14h4.617l.034 23.3h-4.651zm5.709 23.093h-6.81c-2.238 0-4.117-2.004-4.637-4.697h16.082c-.518 2.693-2.397 4.697-4.635 4.697zm14.35-35.833c-3.873 3.537-6.164 8.013-6.593 12.74h-5.816L34.62 38.14h2.298a5.311 5.311 0 005.306-5.305 5.311 5.311 0 00-5.306-5.305 5.312 5.312 0 00-5.305 5.307l.002 2.303h-4.611v-2.305A5.311 5.311 0 0021.7 27.53a5.311 5.311 0 00-5.305 5.305A5.311 5.311 0 0021.7 38.14h2.305v23.3h-5.973c-.636-5.004-2.864-9.464-6.393-12.66-6.527-5.913-9.65-14.695-8.35-23.492 1.593-10.759 10.11-19.715 20.714-21.78 7.908-1.538 15.938.458 22.03 5.48a26.245 26.245 0 019.592 20.319 26.328 26.328 0 01-8.56 19.395z" fill="#fff"/></svg>
